X: 2
T: The Scarlet Regiment  v.3
P: piffero terzo a0677
O: Bill Krug
F: http://ancients.sudburymuster.org/mus/med/pdf/scarletdC0.pdf
Z: 2020 John Chambers <jc:trillian.mit.edu>
M: 3/4
L: 1/8
K: D
C>C |\
D3 C/D/ E>C | D2 D2 DD | D2 ED CB, | C2 Cz C>C |\
D3 C/D/ EF | G2 D2 F>E | DE FG F>E | E2 Dz :|
|: z2 |\
zA/A/ A2 z2 | zA/A/ A2 DE | DC/D/ ED CB, | C2 Cz CC |\
D3 C/D/ EF | G2 D2 F>E | DE FG F>E | E2 Dz :|


